svg/color/lina.svg

<svg viewBox="0 0 82 80" fill="none" xmlns="http://www.w3.org/2000/svg">
<path d="M37.851 73.9354C35.0155 71.708 33.6083 69.3958 33.6154 66.9987C33.5516 64.8004 34.3629 62.6667 35.8711 61.0661L68.0162 28.921C70.2294 30.809 71.5375 32.9515 71.9618 35.3698C72.1799 36.5392 72.1069 37.7442 71.7493 38.8787C71.3917 40.0132 70.7605 41.0423 69.9112 41.8752L37.851 73.9354ZM26.3959 62.4803C23.5533 60.2458 22.1461 57.9336 22.1603 55.5436C22.0965 53.3453 22.9078 51.2115 24.416 49.6109L56.561 17.4659C58.7672 19.3468 60.0824 21.4964 60.5067 23.9147C60.7227 25.0835 60.648 26.2875 60.2892 27.4207C59.9303 28.5539 59.2984 29.5815 58.449 30.413L26.3959 62.4803ZM14.9336 51.0181C12.0911 48.7836 10.6839 46.4714 10.6981 44.0814C10.6343 41.8831 11.4456 39.7493 12.9537 38.1487L45.0988 6.00365C47.3121 7.89163 48.6202 10.0342 49.0445 12.4525C49.2626 13.6218 49.1896 14.8269 48.832 15.9614C48.4744 17.0959 47.8431 18.1249 46.9939 18.9578L14.9336 51.0181Z" fill="url(#paint0_linear_1489_170220)"/>
<defs>
<linearGradient id="paint0_linear_1489_170220" x1="-734.734" y1="-4470.04" x2="1923.55" y2="-1811.76" gradientUnits="userSpaceOnUse">
<stop stop-color="#7EB5FF"/>
<stop offset="0.9997" stop-color="#1A38F8"/>
</linearGradient>
</defs>
</svg>

<svg xmlns="http://www.w3.org/2000/svg" fill="none" viewBox="0 0 82 80"><path fill="url(#lina_svg-a)" d="M37.851 73.935c-2.835-2.227-4.243-4.54-4.236-6.936a8.3 8.3 0 0 1 2.256-5.933l32.145-32.145c2.213 1.888 3.521 4.03 3.946 6.449a7.25 7.25 0 0 1-2.05 6.505zM26.396 62.48c-2.843-2.234-4.25-4.546-4.236-6.936a8.3 8.3 0 0 1 2.256-5.933l32.145-32.145q3.309 2.82 3.946 6.449a7.25 7.25 0 0 1-2.058 6.498zM14.934 51.018c-2.843-2.234-4.25-4.547-4.236-6.937a8.3 8.3 0 0 1 2.256-5.932L45.099 6.004c2.213 1.888 3.521 4.03 3.946 6.449a7.25 7.25 0 0 1-2.051 6.505z"/><defs><linearGradient id="lina_svg-a" x1="-734.734" x2="1923.55" y1="-4470.04" y2="-1811.76" gradientUnits="userSpaceOnUse"><stop stop-color="#7EB5FF"/><stop offset="1" stop-color="#1A38F8"/></linearGradient></defs></svg>
